gnome-shell/src/keyboard-shift-filled-symbolic.svg

<?xml version="1.0" encoding="UTF-8" standalone="no"?>
<svg
   width="16"
   height="16"
   version="1.1"
   id="svg4"
   sodipodi:docname="keyboard-shift-filled-symbolic.svg"
   inkscape:version="1.1 (c68e22c387, 2021-05-23)"
   xmlns:inkscape="http://www.inkscape.org/namespaces/inkscape"
   xmlns:sodipodi="http://sodipodi.sourceforge.net/DTD/sodipodi-0.dtd"
   xmlns="http://www.w3.org/2000/svg"
   xmlns:svg="http://www.w3.org/2000/svg">
  <defs
     id="defs8" />
  <sodipodi:namedview
     id="namedview6"
     pagecolor="#ffffff"
     bordercolor="#666666"
     borderopacity="1.0"
     inkscape:pageshadow="2"
     inkscape:pageopacity="0.0"
     inkscape:pagecheckerboard="0"
     showgrid="true"
     inkscape:zoom="23.5113"
     inkscape:cx="7.996155"
     inkscape:cy="6.8265047"
     inkscape:window-width="1366"
     inkscape:window-height="704"
     inkscape:window-x="0"
     inkscape:window-y="27"
     inkscape:window-maximized="1"
     inkscape:current-layer="svg4">
    <inkscape:grid
       type="xygrid"
       id="grid1522" />
  </sodipodi:namedview>
  <path
     id="path2"
     style="font-variant-ligatures:normal;font-variant-position:normal;font-variant-caps:normal;font-variant-numeric:normal;font-variant-alternates:normal;font-feature-settings:normal;text-indent:0;text-decoration-line:none;text-decoration-style:solid;text-decoration-color:#000000;text-transform:none;text-orientation:mixed;white-space:normal;shape-padding:0;isolation:auto;mix-blend-mode:normal;stroke-width:1.17647;fill:#808080;fill-opacity:1"
     d="M 7.9999997,3 C 7.4608469,3.8529411 6.9374417,4.6435698 6.4306064,5.5620404 5.9250182,6.4893111 5.4678115,7.3994118 5.0588233,8.2941176 H 6.8235291 V 13 L 9.1764706,12.9976 V 8.2941176 l 1.7647064,0.0023 C 10.521259,7.4013131 10.059191,6.4898051 9.5533086,5.5620404 9.0465086,4.6434169 8.5283526,3.8529411 7.9999997,3 Z" />
</svg>

<svg version="1.1" viewBox="0 0 16 16" xmlns="http://www.w3.org/2000/svg">
 <path d="m8 3c-0.53915 0.85294-1.0626 1.6436-1.5694 2.562-0.50559 0.92727-0.96279 1.8374-1.3718 2.7321h1.7647v4.7059l2.3529-0.0024v-4.7035l1.7647 0.0023c-0.41992-0.8951-0.88199-1.8066-1.3879-2.7344-0.5068-0.91862-1.025-1.7091-1.5533-2.562z" fill="#808080" stroke-width="1.1765" style="font-feature-settings:normal;font-variant-alternates:normal;font-variant-caps:normal;font-variant-ligatures:normal;font-variant-numeric:normal;font-variant-position:normal;isolation:auto;mix-blend-mode:normal;shape-padding:0;text-decoration-color:#000000;text-decoration-line:none;text-decoration-style:solid;text-indent:0;text-orientation:mixed;text-transform:none;white-space:normal"/>
</svg>
